svgs/sharp-regular/message-bot.svg

<svg xmlns="http://www.w3.org/2000/svg" viewBox="0 0 640 512"><!--! Font Awesome Pro 6.6.0 by @fontawesome - https://fontawesome.com License - https://fontawesome.com/license (Commercial License) Copyright 2024 Fonticons, Inc. --><path d="M272 480l-48 32 0-48 0-9.7 0-38.3-48 0-32 0-48 0 0-48 0-160-32 0 0 16L0 224l0-64 64 0 0 16 32 0L96 48 96 0l48 0L496 0l48 0 0 48 0 128 32 0 0-16 64 0 0 64-64 0 0-16-32 0 0 160 0 48-48 0-128 0-96 64zM144 368l80 0 48 0 0 48 0 6.3 69.4-46.2 12.1-8.1 14.5 0 128 0 0-176 0-144L144 48l0 144 0 176zM464 96l0 192-288 0 0-192 288 0zM240 224a32 32 0 1 0 0-64 32 32 0 1 0 0 64zm192-32a32 32 0 1 0 -64 0 32 32 0 1 0 64 0z"/></svg>

<svg xmlns="http://www.w3.org/2000/svg" viewBox="0 0 640 512"><!--! Font Awesome Pro 6.5.2 by @fontawesome - https://fontawesome.com License - https://fontawesome.com/license (Commercial License) Copyright 2024 Fonticons, Inc. --><path d="M272 480l-48 32V464v-9.7V416H176 144 96V368 208H64v16H0V160H64v16H96V48 0h48H496h48V48 176h32V160h64v64H576V208H544V368v48H496 368l-96 64zM144 368h80 48v48 6.3l69.4-46.2 12.1-8.1H368 496V192 48H144V192 368zM464 96V288H176V96H464zM240 224a32 32 0 1 0 0-64 32 32 0 1 0 0 64zm192-32a32 32 0 1 0 -64 0 32 32 0 1 0 64 0z"/></svg>
